X:1
T:Title
%%score ( 1 2 ) { ( 3 5 ) | ( 4 6 ) }
L:1/8
Q:1/4=115
M:4/4
K:Ab
V:1 treble nm="Grand Piano, Unnamed-000"
V:2 treble 
V:3 treble nm="Choir Pad, Rosmore"
V:5 treble 
V:4 bass 
V:6 bass 
V:1
 [Ec]2 [EA]2 E2 [EF]2 | G4 z4 | [Ed]2 [EB]2 [DG]2 [DF]2 | [CE]8 | [Ec]2 [EA]2 E2 [EF]2 | A4 z4 | %6
w: By~Henry~G.~Trembath,~1893 * * *||||||
 z4 z2 .G2 | E8 | [GB]2 [GB]2 [_Gc]2 [=GB]2 | d3 B F4 | [FA]2 [FA]2 [=EB]2 [FA]2 | [Ec]8 | %12
w: ||||||
 [=Ec]2 [Ed]2 [Ec]2 [EG]2 | G2 z2 A4 | [=DA]3 [DA] [DG]2 [DF]2 | E8 | E2 [EF]2 [EG]2 [EA]2 | %17
w: |||||
 =A2 z2 z4 | E2 [EF]2 [EG]2 [EA]2 | c4 z4 | [Dd]3 [Dd] [Ec]2 [EB]2 | e4 z4 | z2 .c2 B4 | [EA]8 |] %24
w: |||||||
V:2
 x8 | E3- [EA] [EG]4 | x8 | x8 | x8 | E3- [EA] [EG]4 | [=Dc]2 [DB]2 [DA]2 D-[DF] | x8 | x8 | %9
 F4 z4 | x8 | x8 | x8 | B2- [FB]2 E2 E2 | x8 | x8 | x8 | E2- [EB]2 [Ee]4 | x8 | =D4- [DB]4 | x8 | %21
 E3- [Ec] [CA]4 | [FB]2 F-[Fd] G2 E[EA] | x8 |] %24
V:3
 C2 C2 C2 C2 | D4[K:bass] z4 | B,2 G,2 B,2 [G,B,]2 | [A,C]8 | C2 C2 C2 C2 | B,4 B,4 | %6
 A,2 F,2 C2 B,A, | G,8 | B,2 B,2 =A,2 B,2 | B,2[K:treble] D2 D4 | D2 A,2 G,2[K:bass] A,2 | A,8 | %12
 B,2 B,2 G,2[K:treble] C2 | C4 C4 | .C4 B,2[K:bass] A,2 | G,2 A,2 B,2 _C2 | C2 C2 C2 C2 | %17
 D4[K:bass] z4 | C2 C2 B,2 B,2 | A,8 | A,3 A, A,2 G,2 | A,4 A,4 | D2 D2 D3 C | C8 |] %24
V:4
 [A,,A,]2 [E,,E,]2 [A,,A,]2 [E,,E,]2 | [B,,B,]2 E,,2 B,,2 E,,2 | [G,,G,]2 [E,,E,]2 B,,2 G,,2 | %3
 A,,2 E,,2 G,,2 E,,2 | A,2 E,2 A,2 =A,2 | z8 | B,,2 B,,2 B,,2 B,,2 | E,8 | E,2 E,2 E,2 E,2 | %9
 B,,4 B,4 | D,2 D,2 D,2 D,2 | A,,8 | G,2 G,2 C,2 C,2 | E,4 A,4 | B,,2 z C B,,2 B,,2 | E,2 F,2 G,4 | %16
 [A,,A,]2 [E,,E,]2 [A,,A,]2 [E,,E,]2 | [G,,G,]2 E,,2 G,,2 E,,2 | A,2 A,2 G,2 G,2 | [F,,F,]8 | %20
 =E,3 E, _E,2 D,2 | C,4 F,4 | D,2 B,,2 E,3 A,, | A,,8 |] %24
V:5
 x8 | z2[K:bass] E,2 [B,D]4 | x8 | x8 | x8 | x8 | x8 | x8 | x8 | x2[K:treble] x6 | x6[K:bass] x2 | %11
 x8 | x6[K:treble] x2 | x8 | x6[K:bass] x2 | x8 | x8 | z2[K:bass] E,2 [G,D]4 | x8 | x8 | x8 | x8 | %22
 x8 | x8 |] %24
V:6
 x8 | x8 | x8 | x8 | x8 | x8 | x8 | x8 | x8 | x8 | x8 | x8 | x8 | x8 | z2 B,,2 z4 | x8 | x8 | x8 | %18
 x8 | x8 | x8 | x8 | x8 | x8 |] %24

